X: 2
T: Beauty in Tears
C:Turlough O'Carolan
R:waltz
M:3/4
L:1/8
K:D
A2 \
| "D"d2 f2 a2 | f2 d2 B2 | "Em"ef gf ed | "G"fe dc BA \
| "D"d2 fd ec | "G"d2 B2 G2 | "A7"A2 [B2G2] [c2G2] | "D"[d4F4] :|
z2 \
| "D"d2 f2 a2 | [d'2a2] a2 g2 | "Em"ed ef ga | "G"b2 g2 e2 \
| "D"dc de fg | "Bm"a2 gf ed | "E7"e2 [a2e2] [^g2d2] | "A"[a4c4] |]
f2 \
|"Bm"f2 d2 B2 | B2 c2 d2 | "A"ef gf ed | "G"fe dc BA \
| "D"d2 fd ec | "G"d2 B2 G2 | "A7"A2 [B2G2] [c2G2] | [d4F4] |]

%%sep 1 1 500

